X: 36603
T: Shamrock, The
R: strathspey
M: 4/4
K: Ddorian
|:FA|dcAB cBcA|GEGA c2 Ac|dcAB c2 cA|GEcE D2:|
FG|Addc dfed|cde^f ge=fd|Addc d2 fd|edcB A2 GE|
Dd d/d/d Ad d/d/d|cde^f g2 =fg|a2 ge f2 ec|Addc d2||

